X: 1533
T: Odasına Girdim Fincan Elinde
C: Celal Güzelses
O: Turkey
F: http://compmusic.upf.edu/node/140
N: gerdaniye--turku--sofyan--odasina_girdim--
N: makam= gerdaniye
N: form= turku
N: usul= sofyan = 4/4
M: 4/4
L: 1/16
K: C _2/4B ^3/4f  
Q: 1/4=93
%%MIDI tuningsystem comma53
c2cB dcBA A4 BAG2  | c2cB dcBA A8  | \
w:  ARANAĞME  |   | 
c2cB dcBA A4 BAG2  | 
w:  ARANAĞME  | 
c2cB dcBA A8  | g16  | g16  | z2fg gfgf gfgf gfgf  | 
w:   |  Of   |   |  O da sı na  *  *  gir *  dim  *  fin *  can   | 
aagf e3d d2fg gfgf  | gfgf gfgf aagf e4  | 
w:  e lin *  *  de   *  *  O da sı na   |  gir *  dim  *  fin *  can  *  e lin *  *  de    | 
z2fg a2a2 aa3 g=fed  | dced e4 ceed d4  | 
w:  Sa a tin  kor do nu  in *  ce   |  be lin *  *  de   be lin *  *  de    | 
ABcB dcBA A4 BAG2  | c2cB dcBA A4 BAG2  | 
w:  be lin *  *  de   *  *  a man   a man    |  Kaş la *  rı  *  ke *  *  ke *  man   | 
c2cB dcBA A8  | c2cB dcBA A4 BAG2  | \
w:  göz le *  ri  *  ya *  man    |  Kaş la *  rı  *  ke *  *  ke *  man   | 
c2cB dcBA A8  | 
w:  göz le *  ri  *  ya *  man    | 
c2cB dcBA A4 BAG2  | c2cB dcBA A8  | \
w:  ARANAĞME  |   | 
c2cB dcBA A4 BAG2  | 
w:  ARANAĞME  | 
c2cB dcBA A8  | g16  | g16  | z2fg gfgf gfgf gfgf  | 
w:   |  Of   |   |  O da sı na  *  *  gir *  dim  *  fin *  can   | 
aagf e3d d2fg gfgf  | gfgf gfgf aagf e4  | 
w:  e lin *  *  de   *  *  O da sı na   |  gir *  dim  *  fin *  can  *  e lin *  *  de    | 
z2fg a2a2 aa3 g=fed  | dced e4 ceed d4  | 
w:  Sa a tin  kor do nu  in *  ce   |  be lin *  *  de   be lin *  *  de    | 
ABcB dcBA A4 BAG2  | c2cB dcBA A4 BAG2  | 
w:  be lin *  *  de   *  *  a man   a man    |  Kaş la *  rı  *  ke *  *  ke *  man   | 
c2cB dcBA A8  | c2cB dcBA A4 BAG2  | \
w:  göz le *  ri  *  ya *  man    |  Kaş la *  rı  *  ke *  *  ke *  man   | 
c2cB dcBA A8  | 
w:  göz le *  ri  *  ya *  man    | 
|


